X:495
T: Dougan's Fancy
T: Ansacht U\'i Dh\'ug\'ain
S: B.Breathnach:"Ceol Rince na hEireann" IV/205
Z: B.Black
L: 1/8
M: 4/4
R: reel
K: D
B|AGFG A2 Bc|(3dcB cA B3B|AGFG A2 Bc|dBAG FDDB|
AGFG A2 Bc|(3dcB cA BdcB|AGFG A2 Bc|dBAG FDD ||
e|(3fga fd d2 ef|gefd e2 de|(3fga fd d2 ef|gfed cA A2|
agfd d2 ef|gefd e2 e2|AGFG A2 Bc|dBAG FDD ||
